X: 41056
T: Trip To Nelson
R: jig
M: 6/8
K: Edorian
|:fgf fed|efe ABc|d2B BAF|G3 Bcd|
F2B cde|d2B Bcd|e2f gbg|1 faf ede:|2 faf edc||
|:B3 A3|E3 FAd|B3 A3|E3 DFA|
Bed BcA|G2F FEF|GAB Bcd|1 e2A A3:|2 e3 ede||

